src/lib/packages/icons/src/assets/filled/user-shield.svg

<svg width="24" height="24" viewBox="0 0 24 24" fill="none" xmlns="http://www.w3.org/2000/svg">
<path d="M6.00903 6.5C6.00903 4.294 7.80303 2.5 10.009 2.5C12.215 2.5 14.009 4.294 14.009 6.5C14.009 8.706 12.215 10.5 10.009 10.5C7.80303 10.5 6.00903 8.706 6.00903 6.5ZM14.58 13.89C14.71 13.85 14.8299 13.81 14.9399 13.78C15.1139 13.718 15.17 13.61 15.17 13.49C15.17 13.41 15.137 13.328 15.08 13.28C15.069 13.271 14.99 13.22 14.95 13.2C14.18 12.76 13.21 12.5 12 12.5H8C3.94 12.5 2.5 15.47 2.5 18.02C2.5 20.3 3.71 21.5 6 21.5H14C14.12 21.5 14.23 21.5 14.34 21.49C14.581 21.482 14.67 21.3399 14.67 21.1899C14.67 21.0989 14.603 21.012 14.58 20.98C13.93 20.07 13.5 18.9301 13.5 17.5601V15.33C13.5 14.67 13.94 14.08 14.58 13.89ZM18.4351 14C17.5711 14.444 16.715 14.831 15 15.333C15 15.788 15 17.0811 15 17.5551C15 20.2221 17.143 21.555 18.429 21.999C19.715 21.555 21.858 20.2211 21.858 17.5551C21.858 17.0651 21.858 15.753 21.858 15.275C20.143 14.831 19.2861 14.444 18.4351 14Z" fill="currentColor"/>
</svg>

<svg xmlns="http://www.w3.org/2000/svg" width="24" height="24" fill="none"><path fill="currentColor" d="M6.009 6.5c0-2.206 1.794-4 4-4s4 1.794 4 4-1.794 4-4 4-4-1.794-4-4Zm8.571 7.39c.13-.04.25-.08.36-.11.174-.062.23-.17.23-.29a.28.28 0 0 0-.09-.21 1.303 1.303 0 0 0-.13-.08c-.77-.44-1.74-.7-2.95-.7H8c-4.06 0-5.5 2.97-5.5 5.52 0 2.28 1.21 3.48 3.5 3.48h8c.12 0 .23 0 .34-.01.241-.008.33-.15.33-.3 0-.091-.067-.178-.09-.21a5.782 5.782 0 0 1-1.08-3.42v-2.23c0-.66.44-1.25 1.08-1.44Zm3.855.11c-.864.444-1.72.831-3.435 1.333v2.222c0 2.667 2.143 4 3.429 4.444 1.286-.444 3.429-1.778 3.429-4.444v-2.28c-1.715-.444-2.572-.831-3.423-1.275Z"/></svg>
